X:214
T:Woman of the House (reel), The   
B:CRE1.086 (Bean a Ti Ar Lar)
F:file ID: cre.1/214woman
S:Matthew Tiernan
N:The Gaelic title really refers to another tune (CRE2.199).
M:C
L:1/8
Q:180
R:reel
K:G
DBBA B3A|GBB2 eBdB|(3ABA GB A2 (3B^cd|eBB2 eBdB|
DBBA B3A|GBB2 (3efe dB|GABG (3ABA GA|(3BAG AG EF G2:|
f3d eBB2|eBgB eBB2|f3d ed (3B^cd|eaa2 eaa2|
f3d eBB2|eBgB eBB2|GABG (3ABA GA|(3BAG AG EF G2:|

%%%

